packages/kaspersky-hexa-ui-icons/src/iconsSVGs/24/ParentalControlSolid.svg

<svg width="24" height="24" viewBox="0 0 24 24" fill="none" xmlns="http://www.w3.org/2000/svg">
<path d="M7.97836 4C5.98639 4 4.37158 5.61481 4.37158 7.60678C4.37158 9.59875 5.98639 11.2136 7.97836 11.2136C9.97033 11.2136 11.5851 9.59875 11.5851 7.60678C11.5851 5.61481 9.97033 4 7.97836 4Z" fill="black"/>
<path d="M14 10C14 8.34315 15.3431 7 17 7C18.6569 7 20 8.34315 20 10C20 11.6569 18.6569 13 17 13C15.3431 13 14 11.6569 14 10Z" fill="black"/>
<path d="M15.4649 20H20C21.1046 20 22 19.1046 22 18V17C22 15.3431 20.6569 14 19 14H15.6586C15.8797 14.6256 16 15.2987 16 16V18C16 18.7286 15.8052 19.4117 15.4649 20Z" fill="black"/>
<path d="M2 16C2 13.7909 3.79086 12 6 12H10C12.2091 12 14 13.7909 14 16V18C14 19.1046 13.1046 20 12 20H4C2.89543 20 2 19.1046 2 18V16Z" fill="black"/>
</svg>

<svg xmlns="http://www.w3.org/2000/svg" width="24" height="24" fill="none" viewBox="0 0 24 24"><path fill="#000" fill-rule="evenodd" d="M7.9784 4c-1.992 0-3.6068 1.6148-3.6068 3.6068s1.6148 3.6068 3.6068 3.6068 3.6067-1.6148 3.6067-3.6068S9.9703 4 7.9784 4M14 10c0-1.6569 1.3431-3 3-3s3 1.3431 3 3-1.3431 3-3 3-3-1.3431-3-3M2 16c0-2.2091 1.7909-4 4-4h4c2.2091 0 4 1.7909 4 4v2c0 1.1046-.8954 2-2 2H4c-1.1046 0-2-.8954-2-2zm13.4649 4H20c1.1046 0 2-.8954 2-2v-1c0-1.6569-1.3431-3-3-3h-3.3414A5.99 5.99 0 0 1 16 16v2a3.98 3.98 0 0 1-.5351 2"/></svg>
